X: 4
T: Michael Russell's
R: slide
M: 12/8
L: 1/8
K: Dmaj
|: dcB |A3 A2 F ABA F2 E | DFA B2 A B2 A F3 |
dcd a2 g f2 d B2 A | BcA BAB d2 d :|
|: d3 |dcd a2 g f2 d B2 A | BcA BcA B2 A F3 |
dcd a2 g f2 d B2 A | BcA BAB d3 :|


Tune 958	Setting 25379

